svgs/sharp-light/naira-sign.svg

<svg xmlns="http://www.w3.org/2000/svg" viewBox="0 0 448 512"><!--! Font Awesome Pro 6.6.0 by @fontawesome - https://fontawesome.com License - https://fontawesome.com/license (Commercial License) Copyright 2024 Fonticons, Inc. --><path d="M80 32L64 32l0 16 0 208-48 0L0 256l0 32 16 0 48 0 0 176 0 16 32 0 0-16 0-176 130.1 0L349.4 472.9l4.7 7.1 8.6 0 5.3 0 16 0 0-16 0-176 48 0 16 0 0-32-16 0-48 0 0-208 0-16-32 0 0 16 0 208-108.8 0L98.6 39.1 93.9 32l-8.6 0L80 32zM264.6 288l87.4 0 0 131.2L264.6 288zm-59.8-32L96 256 96 92.8 204.8 256z"/></svg>

<svg xmlns="http://www.w3.org/2000/svg" viewBox="0 0 448 512"><!--! Font Awesome Pro 6.5.2 by @fontawesome - https://fontawesome.com License - https://fontawesome.com/license (Commercial License) Copyright 2024 Fonticons, Inc. --><path d="M80 32H64V48 256H16 0v32H16 64V464v16H96V464 288H226.1L349.4 472.9l4.7 7.1h8.6H368h16V464 288h48 16V256H432 384V48 32H352V48 256H243.2L98.6 39.1 93.9 32H85.3 80zM264.6 288H352V419.2L264.6 288zm-59.8-32H96V92.8L204.8 256z"/></svg>
